X:1
T:Title
%%score { ( 1 3 ) | ( 2 4 ) }
L:1/8
M:3/4
K:Eb
V:1 treble nm="Grand Piano"
V:3 treble 
V:2 bass 
V:4 bass 
V:1
 z2 z[Q:1/4=100] [G,B,E] [B,EG][EAc] | [EGB]3 [B,EG] [B,FA][A,DF] | [G,E]3 [B,EG] [B,GB][Ge] | %3
 [Ad]3 [DAB] [E=Ac][EFA] |[M:3/8] [DFB]3 | BBB |[M:3/4] c3 c dd | e3 e B_d | cA G2 F-[B,F] | %9
[M:3/8] E3 | [DF][DF][DB] |[M:3/4] [Fd]3 [Fd] e=A | c3 F F=A | c3 c [Ge][EF=A] |[M:3/8] [DFB]3 | %15
 BBB |[M:3/4] c3 c dd | e3 e B_d | cA G2 F-[B,F] |[M:3/8] E3 |] %20
V:2
 z2 z E, E,E, | E,3 E, B,,B,, | E,3 E, E,[E,B,] | [F,B,]3 F, F,F, |[M:3/8] B,,3 | %5
 [B,DF][B,DF][B,DF] |[M:3/4] [=A,CF]3 [A,CF] [_A,B,F][A,B,F] | [G,B,E]3 [G,B,E] [G,B,E][G,B,E] | %8
 [A,E][A,CE] [B,E]2 z A, |[M:3/8] [E,G,B,]3 | [B,,B,][B,,B,][B,,F,] | %11
[M:3/4] [B,,B,]3 [B,,B,] [F,=A,F][F,CF] | [F,=A,F]3 [F,A,C] [F,A,C][F,CF] | %13
 [F,=A,F]3 [F,A,F] [F,C]F, |[M:3/8] B,,3 | [B,DF][B,DF][B,DF] | %16
[M:3/4] [=A,CF]3 [A,CF] [_A,B,F][A,B,F] | [G,B,E]3 [G,B,E] [G,B,E][G,B,E] | %18
 [A,E][A,CE] [B,E]2 z A, |[M:3/8] [E,G,B,]3 |] %20
V:3
 x6 | x6 | x6 | x6 |[M:3/8] x3 | x3 |[M:3/4] x6 | x6 | z2 z2 .[B,D]2 |[M:3/8] x3 | x3 |[M:3/4] x6 | %12
 x6 | x6 |[M:3/8] x3 | x3 |[M:3/4] x6 | x6 | z2 z2 .[B,D]2 |[M:3/8] x3 |] %20
V:4
 x6 | x6 | x6 | x6 |[M:3/8] x3 | x3 |[M:3/4] x6 | x6 | z2 z2 B,,2 |[M:3/8] x3 | x3 |[M:3/4] x6 | %12
 x6 | x6 |[M:3/8] x3 | x3 |[M:3/4] x6 | x6 | z2 z2 B,,2 |[M:3/8] x3 |] %20

